src/2-landmarks/subway-interior--door-drop.svg

<svg width="1300" height="1000" fill="none" xmlns="http://www.w3.org/2000/svg"><g clip-path="url(#a)" fill="#000"><path fill-rule="evenodd" clip-rule="evenodd" d="M957 0h-7v80c0 11.046 8.954 20 20 20h54.12l-19.47 34.545c-1.88 3.333.53 7.455 4.36 7.455h46.98c3.83 0 6.24-4.122 4.36-7.455L1040.88 100h95.24l-19.47 34.545c-1.88 3.333.53 7.455 4.36 7.455h46.98c3.83 0 6.24-4.122 4.36-7.455L1152.88 100h95.24l-19.47 34.545c-1.88 3.333.53 7.455 4.36 7.455h46.98c3.83 0 6.24-4.122 4.36-7.455L1264.88 100H1300v-7H972c-8.284 0-15-6.716-15-15V0Zm75.99 100h-.98l-20.71 35h42.4l-20.71-35Zm90.31 35 20.71-35h.98l20.71 35h-42.4Zm133.69-35h-.98l-20.71 35h42.4l-20.71-35ZM672.388 337.83c1.835-.165 8.802-1.278 12.434-3.009 4.345-2.07 8.287-5.681 10.881-9.598 1.871-2.826 3.555-8.377 4.348-11.251.334-1.209.551-2.445.694-3.691l2.768-24.167c.13-1.801.141-3.965-.016-5.762-.419-4.765-1.691-8.901-4.075-13.093-2.385-4.191-5.288-7.801-9.24-10.719-3.952-2.918-9.017-5.282-13.877-6.44-4.847-1.048-6.715-1.197-11.673-.931-4.604.44-7.227 1.117-11.462 2.955-5.455 2.367-8.43 4.38-12.421 8.741-3.743 4.091-5.453 6.947-7.238 12.161-1.737 5.076-2.187 8.269-1.74 13.601.188 2.242.985 5.678.985 5.678l6.183 23.705c.287 1.102.633 2.185 1.087 3.228 1.109 2.543 3.504 7.554 6.247 10.348 4.054 4.129 7.255 5.886 12.864 7.482 4.976 1.417 13.251.762 13.251.762Zm-.61-6.973c1.479-.133 7.089-1.049 10.01-2.495 3.494-1.73 6.66-4.759 8.737-8.05 1.454-2.304 2.758-6.77 3.41-9.242.307-1.166.502-2.355.629-3.555l2.129-20.124c.099-1.517.101-3.34-.031-4.854-.353-4.016-1.392-7.504-3.327-11.043-1.935-3.538-4.286-6.589-7.48-9.06-3.194-2.471-7.284-4.478-11.204-5.47-3.909-.898-5.414-1.03-9.409-.822-3.709.357-5.82.918-9.227 2.453-4.388 1.976-6.779 3.662-9.981 7.323-3.003 3.434-4.372 5.835-5.793 10.221-1.384 4.271-1.736 6.959-1.359 11.453.159 1.889.813 4.786.813 4.786l5.009 19.794c.268 1.059.589 2.101 1.016 3.107.933 2.198 2.831 6.254 4.987 8.549 3.28 3.491 5.865 4.982 10.39 6.344 4.015 1.209 10.681.685 10.681.685Z"/><path fill-rule="evenodd" clip-rule="evenodd" d="M400 900V220c0-11.046 8.954-20 20-20h460c11.046 0 20 8.954 20 20v680h80V720h-10c-11.046 0-20-8.954-20-20v-20c0-11.046 8.954-20 20-20h10v-10c0-11.046 8.954-20 20-20h300v7h-298c-8.284 0-15 6.716-15 15v8h243c6.85 0 12.9 3.444 16.5 8.694 3.6-5.25 9.65-8.694 16.5-8.694h37v7h-35c-8.28 0-15 6.716-15 15v16c0 8.284 6.72 15 15 15h35v7h-37c-6.85 0-12.9-3.444-16.5-8.694-3.6 5.25-9.65 8.694-16.5 8.694H987v180h313v100H0V900h313V720H70c-6.85 0-12.895-3.444-16.5-8.694C49.895 716.556 43.85 720 37 720H0v-7h35c8.284 0 15-6.716 15-15v-16c0-8.284-6.716-15-15-15H0v-7h37c6.85 0 12.895 3.444 16.5 8.694C57.105 663.444 63.15 660 70 660h243v-8c0-8.284-6.716-15-15-15H0v-7h300c11.046 0 20 8.954 20 20v10h10c11.046 0 20 8.954 20 20v20c0 11.046-8.954 20-20 20h-10v180h80Zm493-57V561h-53c-11.046 0-20-8.954-20-20V250c0-11.046 8.954-20 20-20h53v-8c0-8.284-6.716-15-15-15h-78v636h93Zm-93 7h93v50h-93v-11.227l27-7.772v-1.907c0-10.059-7.472-18.554-17.45-19.836L800 858.03V850Zm-7-643H505v665.001l3.5-5a6.831 6.831 0 0 1-2.084-8.861L568.5 744.004l31-167.996-33.712 48.088a.925.925 0 0 1-.789.392c-12.692-.479-21.098-13.363-16.423-25.173L558 575.508s9-57.499 17-103.498c.285-1.638 13.472-48.964 31-84.998 18.5-33.499 31-47.499 72.5-46.999 6 .072 11.994 4 14.5 9.5 18 39.499 67 182.996 67 182.996l14.111 14.317c10.929 11.09 10.645 28.985-.63 39.723a.836.836 0 0 1-1.036.093l-42.392-27.94a5.016 5.016 0 0 1-1.651-1.804l-9.902-18.39 3.5 22 60 156.496 10 139.997 1 .129V207ZM407 900v-50h91v50h-91Zm0-57h91V207h-76c-8.284 0-15 6.716-15 15v8h51c11.046 0 20 8.954 20 20v291c0 11.046-8.954 20-20 20h-51v282Zm836-145v-16c0-8.284-6.72-15-15-15H972c-8.284 0-15 6.716-15 15v16c0 8.284 6.716 15 15 15h256c8.28 0 15-6.716 15-15ZM72 713c-8.284 0-15-6.716-15-15v-16c0-8.284 6.716-15 15-15h256c8.284 0 15 6.716 15 15v16c0 8.284-6.716 15-15 15H72Zm721 177.788V900h-32l32-9.212Zm-67.5 1.712 1.5 7.5H592.5v-1.854a20 20 0 0 0-10.128-17.394L574 876.001l73-131.997 19-79.498 38.5 79.498 14.397 142.527a6.636 6.636 0 0 0 6.603 5.969Zm-141.981 2.451L584 900l-38-1-36-20.5 9.758-12.963a7.178 7.178 0 0 1-2.575-9.498L577 744l18.5-106.75L617 523.5s-5.5 44 44 123.5c2.802 4.5-22 97-22 97l-75.5 135.5 14.627 7.501a10 10 0 0 1 5.392 7.95ZM530 900h-25v-14.062L530 900Zm363-663h-51c-8.284 0-15 6.716-15 15v287c0 8.284 6.716 15 15 15h51V237ZM407 554V237h49c8.284 0 15 6.716 15 15v287c0 8.284-6.716 15-15 15h-49Zm377.5 309.47 23.437 1.804a10 10 0 0 1 9.231 9.786l.004.237L735.5 899l-2.5-13.017a8.447 8.447 0 0 1-7.124-7.547L713 743.403s-53-113.12-54.5-115.564c-32.911-53.627-36.155-102.215-36.467-109.982-.03-.736.069-1.44.269-2.149l27.164-96.099a1.484 1.484 0 0 0-2.821-.91L611 516.777l-20.5 59.534-27.369 38.339a.437.437 0 0 1-.356.183c-6.145 0-10.369-6.178-8.14-11.904L565 576.311l17-104.559s15.321-56.329 33.999-90.535c16.835-30.831 40.853-35.212 53.125-35.217 5.192-.002 10.313 2.082 12.393 6.84 6.104 13.96 17.916 59.398 32.483 206.962l60 157.087 10.5 146.581ZM688 351s23 83.5 27 166c.17 3.507 20.95 36.622 20.95 36.622l34.098 23.565a.71.71 0 0 0 .868-.046c5.873-5.073 6.593-13.918 1.618-19.873L753.5 534.485 731 468l-43-117Z"/><path d="M0 553v7h330c11.046 0 20-8.954 20-20V250c0-11.046-8.954-20-20-20H0v7h328c8.284 0 15 6.716 15 15v286c0 8.284-6.716 15-15 15H0Zm1300 7v-7H972c-8.284 0-15-6.716-15-15V252c0-8.284 6.716-15 15-15h328v-7H970c-11.046 0-20 8.954-20 20v290c0 11.046 8.954 20 20 20h330Z"/><path fill-rule="evenodd" clip-rule="evenodd" d="M350 0h-7v78c0 8.284-6.716 15-15 15H0v7h35.118L15.65 134.545c-1.878 3.333.53 7.455 4.356 7.455h46.986c3.826 0 6.234-4.122 4.356-7.455L51.882 100h95.236l-19.467 34.545c-1.878 3.333.53 7.455 4.356 7.455h46.986c3.826 0 6.234-4.122 4.356-7.455L163.882 100h95.236l-19.467 34.545c-1.878 3.333.53 7.455 4.356 7.455h46.986c3.826 0 6.234-4.122 4.356-7.455L275.882 100H330c11.046 0 20-8.954 20-20V0ZM22.301 135l20.706-35h.986L64.7 135H22.3Zm133.692-35h-.986l-20.706 35h42.398l-20.706-35Zm90.308 35 20.706-35h.986l20.706 35h-42.398Z"/></g><defs><clipPath id="a"><path fill="#fff" d="M0 0h1300v1000H0z"/></clipPath></defs></svg>

<svg width="1300" height="1000" viewBox="0 0 1300 1000" fill="none" xmlns="http://www.w3.org/2000/svg">
<g clip-path="url(#clip0_179_1068)">
<path fill-rule="evenodd" clip-rule="evenodd" d="M957 0H950V80C950 91.0457 958.954 100 970 100H1024.12L1004.65 134.545C1002.77 137.878 1005.18 142 1009.01 142H1055.99C1059.82 142 1062.23 137.878 1060.35 134.545L1040.88 100H1136.12L1116.65 134.545C1114.77 137.878 1117.18 142 1121.01 142H1167.99C1171.82 142 1174.23 137.878 1172.35 134.545L1152.88 100H1248.12L1228.65 134.545C1226.77 137.878 1229.18 142 1233.01 142H1279.99C1283.82 142 1286.23 137.878 1284.35 134.545L1264.88 100H1300V93H972C963.716 93 957 86.2843 957 78V0ZM1032.99 100H1032.01L1011.3 135H1053.7L1032.99 100ZM1123.3 135L1144.01 100H1144.99L1165.7 135H1123.3ZM1256.99 100H1256.01L1235.3 135H1277.7L1256.99 100Z" fill="black"/>
<path fill-rule="evenodd" clip-rule="evenodd" d="M672.388 337.83C674.223 337.665 681.19 336.552 684.822 334.821C689.167 332.751 693.109 329.14 695.703 325.223C697.574 322.397 699.258 316.846 700.051 313.972C700.385 312.763 700.602 311.527 700.745 310.281L703.513 286.114C703.643 284.313 703.654 282.149 703.497 280.352C703.078 275.587 701.806 271.451 699.422 267.259C697.037 263.068 694.134 259.458 690.182 256.54C686.23 253.622 681.165 251.258 676.305 250.1C671.458 249.052 669.59 248.903 664.632 249.169C660.028 249.609 657.405 250.286 653.17 252.124C647.715 254.491 644.74 256.504 640.749 260.865C637.006 264.956 635.296 267.812 633.511 273.026C631.774 278.102 631.324 281.295 631.771 286.627C631.959 288.869 632.756 292.305 632.756 292.305L638.939 316.01C639.226 317.112 639.572 318.195 640.026 319.238C641.135 321.781 643.53 326.792 646.273 329.586C650.327 333.715 653.528 335.472 659.137 337.068C664.113 338.485 672.388 337.83 672.388 337.83ZM671.778 330.857C673.257 330.724 678.867 329.808 681.788 328.362C685.282 326.632 688.448 323.603 690.525 320.312C691.979 318.008 693.283 313.542 693.935 311.07C694.242 309.904 694.437 308.715 694.564 307.515L696.693 287.391C696.792 285.874 696.794 284.051 696.662 282.537C696.309 278.521 695.27 275.033 693.335 271.494C691.4 267.956 689.049 264.905 685.855 262.434C682.661 259.963 678.571 257.956 674.651 256.964C670.742 256.066 669.237 255.934 665.242 256.142C661.533 256.499 659.422 257.06 656.015 258.595C651.627 260.571 649.236 262.257 646.034 265.918C643.031 269.352 641.662 271.753 640.241 276.139C638.857 280.41 638.505 283.098 638.882 287.592C639.041 289.481 639.695 292.378 639.695 292.378L644.704 312.172C644.972 313.231 645.293 314.273 645.72 315.279C646.653 317.477 648.551 321.533 650.707 323.828C653.987 327.319 656.572 328.81 661.097 330.172C665.112 331.381 671.778 330.857 671.778 330.857Z" fill="black"/>
<path fill-rule="evenodd" clip-rule="evenodd" d="M400 900V220C400 208.954 408.954 200 420 200H880C891.046 200 900 208.954 900 220V900H980V720H970C958.954 720 950 711.046 950 700V680C950 668.954 958.954 660 970 660H980V650C980 638.954 988.954 630 1000 630H1300V637H1002C993.716 637 987 643.716 987 652V660H1230C1236.85 660 1242.9 663.444 1246.5 668.694C1250.1 663.444 1256.15 660 1263 660H1300V667H1265C1256.72 667 1250 673.716 1250 682V698C1250 706.284 1256.72 713 1265 713H1300V720H1263C1256.15 720 1250.1 716.556 1246.5 711.306C1242.9 716.556 1236.85 720 1230 720H987V900H1300V1000H0V900H313V720H70C63.1501 720 57.1046 716.556 53.5 711.306C49.8954 716.556 43.8499 720 37 720H0V713H35C43.2843 713 50 706.284 50 698V682C50 673.716 43.2843 667 35 667H0V660H37C43.8499 660 49.8954 663.444 53.5 668.694C57.1046 663.444 63.1501 660 70 660H313V652C313 643.716 306.284 637 298 637H0V630H300C311.046 630 320 638.954 320 650V660H330C341.046 660 350 668.954 350 680V700C350 711.046 341.046 720 330 720H320V900H400ZM893 843V561H840C828.954 561 820 552.046 820 541V250C820 238.954 828.954 230 840 230H893V222C893 213.716 886.284 207 878 207H800V843H893ZM800 850H893V900H800V888.773L827 881.001V879.094C827 869.035 819.528 860.54 809.55 859.258L800 858.03V850ZM793 207H505V872.001L508.5 867.001C505.652 865.008 504.755 861.193 506.416 858.14L568.5 744.004L599.5 576.008L565.788 624.096C565.608 624.352 565.311 624.499 564.999 624.488C552.307 624.009 543.901 611.125 548.576 599.315L558 575.508C558 575.508 567 518.009 575 472.01C575.285 470.372 588.472 423.046 606 387.012C624.5 353.513 637 339.513 678.5 340.013C684.5 340.085 690.494 344.013 693 349.513C711 389.012 760 532.509 760 532.509L774.111 546.826C785.04 557.916 784.756 575.811 773.481 586.549C773.2 586.817 772.77 586.856 772.445 586.642L730.053 558.702C729.362 558.246 728.795 557.626 728.402 556.898L718.5 538.508L722 560.508L782 717.004L792 857.001L793 857.13V207ZM407 900V850H498V900H407ZM407 843H498V207H422C413.716 207 407 213.716 407 222V230H458C469.046 230 478 238.954 478 250V541C478 552.046 469.046 561 458 561H407V843ZM1243 698V682C1243 673.716 1236.28 667 1228 667H972C963.716 667 957 673.716 957 682V698C957 706.284 963.716 713 972 713H1228C1236.28 713 1243 706.284 1243 698ZM72 713C63.7157 713 57 706.284 57 698V682C57 673.716 63.7157 667 72 667H328C336.284 667 343 673.716 343 682V698C343 706.284 336.284 713 328 713H72ZM793 890.788V900H761L793 890.788ZM725.5 892.5L727 900H592.5V898.146C592.5 890.948 588.632 884.305 582.372 880.752L574 876.001L647 744.004L666 664.506L704.5 744.004L718.897 886.531C719.239 889.921 722.093 892.5 725.5 892.5ZM583.519 894.951L584 900L546 899L510 878.5L519.758 865.537C516.523 863.55 515.395 859.388 517.183 856.039L577 744L595.5 637.25L617 523.5C617 523.5 611.5 567.5 661 647C663.802 651.5 639 744 639 744L563.5 879.5L578.127 887.001C581.163 888.558 583.196 891.555 583.519 894.951ZM530 900H505V885.938L530 900ZM893 237H842C833.716 237 827 243.716 827 252V539C827 547.284 833.716 554 842 554H893V237ZM407 554V237H456C464.284 237 471 243.716 471 252V539C471 547.284 464.284 554 456 554H407ZM784.5 863.47L807.937 865.274C813.076 865.67 817.073 869.906 817.168 875.06L817.172 875.297L735.5 899L733 885.983C729.178 885.395 726.243 882.286 725.876 878.436L713 743.403C713 743.403 660 630.283 658.5 627.839C625.589 574.212 622.345 525.624 622.033 517.857C622.003 517.121 622.102 516.417 622.302 515.708L649.466 419.609C649.733 418.662 649.022 417.722 648.039 417.722C647.415 417.722 646.858 418.113 646.645 418.699L611 516.777L590.5 576.311L563.131 614.65C563.049 614.765 562.916 614.833 562.775 614.833C556.63 614.833 552.406 608.655 554.635 602.929L565 576.311L582 471.752C582 471.752 597.321 415.423 615.999 381.217C632.834 350.386 656.852 346.005 669.124 346C674.316 345.998 679.437 348.082 681.517 352.84C687.621 366.8 699.433 412.238 714 559.802L774 716.889L784.5 863.47ZM688 351C688 351 711 434.5 715 517C715.17 520.507 735.95 553.622 735.95 553.622L770.048 577.187C770.314 577.371 770.671 577.352 770.916 577.141C776.789 572.068 777.509 563.223 772.534 557.268L753.5 534.485L731 468L688 351Z" fill="black"/>
<path d="M0 553V560H330C341.046 560 350 551.046 350 540V250C350 238.954 341.046 230 330 230H0V237H328C336.284 237 343 243.716 343 252V538C343 546.284 336.284 553 328 553H0Z" fill="black"/>
<path d="M1300 560V553H972C963.716 553 957 546.284 957 538V252C957 243.716 963.716 237 972 237H1300V230H970C958.954 230 950 238.954 950 250V540C950 551.046 958.954 560 970 560H1300Z" fill="black"/>
<path fill-rule="evenodd" clip-rule="evenodd" d="M350 0H343V78C343 86.2843 336.284 93 328 93H0V100H35.1176L15.651 134.545C13.7728 137.878 16.1812 142 20.007 142H66.9927C70.8185 142 73.2269 137.878 71.3487 134.545L51.8821 100H147.118L127.651 134.545C125.773 137.878 128.181 142 132.007 142H178.993C182.819 142 185.227 137.878 183.349 134.545L163.882 100H259.118L239.651 134.545C237.773 137.878 240.181 142 244.007 142H290.993C294.819 142 297.227 137.878 295.349 134.545L275.882 100H330C341.046 100 350 91.0457 350 80V0ZM22.3012 135L43.0069 100H43.9931L64.6988 135H22.3012ZM155.993 100H155.007L134.301 135H176.699L155.993 100ZM246.301 135L267.007 100H267.993L288.699 135H246.301Z" fill="black"/>
</g>
<defs>
<clipPath id="clip0_179_1068">
<rect width="1300" height="1000" fill="white"/>
</clipPath>
</defs>
</svg>
